X: 1
T:N°89 "Marche"
N:page 108
S:Manuscrit Wandembrile (1778), Archives de l'Etat à Namur
Z:ABC transcription Olivier VIENNE troubadourwallon@gmail.com
K:Dmaj
M:C|
L:1/8
d3 e f2 g2|f2 a2 d2 ef|g2 fe f2 ed|cdec d2 z f|e2 dc d2 cB|c2 d2 e2 A2|B2 f2 edcB|A4 [A,EA]4:|
|:A3 B c2 d2|e2 a2 a2 f2|g2 ba gfed|a2 A2 z2 b2|a2 gf g2 fe|f2 g2 a2 d2|e2 b2 agfe|d4 [DAd]4:|]










